icons/op-configure-knobs-24.svg

<svg width="24" height="24" viewBox="0 0 24 24" fill="none" xmlns="http://www.w3.org/2000/svg">
<path fill-rule="evenodd" clip-rule="evenodd" d="M17.6571 8.13861H20V9.20792H17.6571C17.3714 10.4376 16.2286 11.3465 14.8571 11.3465C13.4857 11.3465 12.3429 10.4376 12.0571 9.20792H4V8.13861H12.0571C12.3429 6.90891 13.4857 6 14.8571 6C16.2286 6 17.3714 6.90891 17.6571 8.13861ZM13.1429 8.67327C13.1429 9.58218 13.8857 10.2772 14.8571 10.2772C15.8286 10.2772 16.5714 9.58218 16.5714 8.67327C16.5714 7.76436 15.8286 7.06931 14.8571 7.06931C13.8857 7.06931 13.1429 7.76436 13.1429 8.67327Z" fill="black"/>
<path fill-rule="evenodd" clip-rule="evenodd" d="M6.34286 15.8614H4V14.7921H6.34286C6.62857 13.5624 7.77143 12.6535 9.14286 12.6535C10.5143 12.6535 11.6571 13.5624 11.9429 14.7921H20V15.8614H11.9429C11.6571 17.0911 10.5143 18 9.14286 18C7.77143 18 6.62857 17.0911 6.34286 15.8614ZM10.8571 15.3267C10.8571 14.4178 10.1143 13.7228 9.14286 13.7228C8.17143 13.7228 7.42857 14.4178 7.42857 15.3267C7.42857 16.2356 8.17143 16.9307 9.14286 16.9307C10.1143 16.9307 10.8571 16.2356 10.8571 15.3267Z" fill="black"/>
</svg>

<svg xmlns="http://www.w3.org/2000/svg" width="24" height="24" viewBox="0 0 24 24"><path d="M17.657 8.139H20v1.069h-2.343c-.286 1.23-1.428 2.139-2.8 2.139-1.371 0-2.514-.909-2.8-2.139H4V8.139h8.057C12.343 6.909 13.486 6 14.857 6c1.372 0 2.514.909 2.8 2.139Zm-4.514.534c0 .909.743 1.604 1.714 1.604.972 0 1.714-.695 1.714-1.604 0-.909-.742-1.604-1.714-1.604-.971 0-1.714.695-1.714 1.604Zm-6.8 7.188H4v-1.069h2.343c.286-1.23 1.428-2.139 2.8-2.139 1.371 0 2.514.909 2.8 2.139H20v1.069h-8.057c-.286 1.23-1.429 2.139-2.8 2.139-1.372 0-2.514-.909-2.8-2.139Zm4.514-.534c0-.909-.743-1.604-1.714-1.604-.972 0-1.714.695-1.714 1.604 0 .909.742 1.604 1.714 1.604.971 0 1.714-.695 1.714-1.604Z"/></svg>
